epam-assets/icon-sources/18/social-network-youtube.svg

<svg width="18" height="18" viewBox="0 0 18 18" fill="none" xmlns="http://www.w3.org/2000/svg">
<g id="18/social-network-youtube">
<path id="icon" fill-rule="evenodd" clip-rule="evenodd" d="M7.5 11.25L11.3925 9L7.5 6.75V11.25ZM16.17 5.3775C16.2675 5.73 16.335 6.2025 16.38 6.8025C16.4325 7.4025 16.455 7.92 16.455 8.37L16.5 9C16.5 10.6425 16.38 11.85 16.17 12.6225C15.9825 13.2975 15.5475 13.7325 14.8725 13.92C14.52 14.0175 13.875 14.085 12.885 14.13C11.91 14.1825 11.0175 14.205 10.1925 14.205L9 14.25C5.8575 14.25 3.9 14.13 3.1275 13.92C2.4525 13.7325 2.0175 13.2975 1.83 12.6225C1.7325 12.27 1.665 11.7975 1.62 11.1975C1.5675 10.5975 1.545 10.08 1.545 9.63L1.5 9C1.5 7.3575 1.62 6.15 1.83 5.3775C2.0175 4.7025 2.4525 4.2675 3.1275 4.08C3.48 3.9825 4.125 3.915 5.115 3.87C6.09 3.8175 6.9825 3.795 7.8075 3.795L9 3.75C12.1425 3.75 14.1 3.87 14.8725 4.08C15.5475 4.2675 15.9825 4.7025 16.17 5.3775Z" fill="#6C6F80"/>
</g>
</svg>

<svg xmlns="http://www.w3.org/2000/svg" width="18" height="18" fill="none" viewBox="0 0 18 18">
  <path fill="#6C6F80" fill-rule="evenodd" d="M7.5 11.25 11.393 9 7.5 6.75v4.5Zm8.67-5.872c.097.352.165.824.21 1.425.053.6.075 1.117.075 1.567L16.5 9c0 1.643-.12 2.85-.33 3.623-.188.675-.623 1.11-1.298 1.297-.352.098-.997.165-1.987.21-.975.052-1.867.075-2.692.075L9 14.25c-3.143 0-5.1-.12-5.873-.33-.674-.188-1.11-.623-1.297-1.297-.098-.353-.165-.825-.21-1.425-.053-.6-.075-1.118-.075-1.568L1.5 9c0-1.643.12-2.85.33-3.622.188-.676.623-1.11 1.297-1.298.353-.098.998-.165 1.988-.21a49.987 49.987 0 0 1 2.692-.075L9 3.75c3.143 0 5.1.12 5.873.33.675.188 1.11.622 1.297 1.298Z" clip-rule="evenodd"/>
</svg>
